!!!ONB: MCCC : IFS0792_00 : Extracted Monophonic Melody
!!!COM: Schubert, Franz
!!!OTL: Ungarische Melodie
!!!SCT: D.817
!!!ODT: 1824///
**kern
*staff1
*clefG2
*k[f#]
*G:
*M2/4
32f#
8b
16.b[
32b]
8b[
=2
16b]
32r
32f#
8b[
16b]
16f#
16b
16cc#
=3
16.dd
32f#
8dd
16.dd[
32dd]
8dd
=4
16.dd[
32dd]
8dd[
16dd]
16b
16dd
16ee
=5
16.ff#
32b
8ff#[
16ff#]
32r
32b
8ff#[
=6
16ff#]
32r
32b
8ff#
16gg
16ff#
16ee
16dd
=7
16.ff#
32b-
8ff#[
16ff#]
32r
32b-
8ff#[
=8
16ff#]
32r
32b-
8ff#
16bb-
16gg
16ff#
16ee
=9
16.dd
32b
8ff#[
16ff#]
32r
32b
8ff#[
=10
16ff#]
32r
32b
8ff#
16ee
16dd
16cc#
16b
=11
16.a
32d
8a
16.a[
32a]
8a
=12
16.a[
32a]
8a
16.a[
32a]
16.a
32b
=13
8a
16.a
32b
8a
16.a
32b
=14
8a
8a
16g#
16a
16g#
16cc#
=15
16f#
32r
32f#
8ff#[
16ff#]
32r
32f#
8ff#[
=16
16ff#]
32r
32f#
8ff#
16gg#
16dd
16cc#
16b
=17
16.cc#
32f#
8ff#[
16ff#]
32r
32f#
8ff#[
=18
16ff#]
32r
32f#
8ff#
16gg#
16dd
16cc#
16b
=19
16.cc#
32c#
8cc#
16.cc#[
32cc#]
8cc#
=20
16.cc#[
32cc#]
8cc#
16g#
16b
16a#
16g#
=21
16.b-
32c#
8cc#
16.cc#[
32cc#]
8cc#
=22
16.cc#[
32cc#]
8cc#
16g#
16b
16a#
16g#
=23
16.f#
32c#
8f#[
16f#]
32r
32c#
8f#
=24
16.f#
32c#
8f#[
16f#]
32r
32c#
8f#
=25
16r
32r
32f#
8b
16.b[
32b]
8b[
=26
16b]
32r
32f#
8b[
16b]
16f#
16b
16cc#
=27
16.dd
32f#
8dd
16.dd[
32dd]
8dd
=28
16.dd[
32dd]
8dd[
16dd]
16b
16dd
16ee
=29
16.ff#
32b
8ff#[
16ff#]
32r
32b
8ff#[
=30
16ff#]
32r
32b
8ff#
16gg
16ff#
16ee
16dd
=31
16.ff#
32b-
8ff#[
16ff#]
32r
32b-
8ff#[
=32
16ff#]
32r
32b-
8ff#
16bb-
16gg
16ff#
16ee
=33
16.dd
32b
8ff#[
16ff#]
32r
32b
8ff#[
=34
16ff#]
32r
32b
8ff#
16ee
16dd
16cc#
16b
=35
16.a
32d
8a
16.a[
32a]
8a
=36
16.a[
32a]
8a
16.a[
32a]
16.a
32b
=37
8a
16.a
32b
8a
16.a
32b
=38
8a
8a
16g#
16a
16g#
16cc#
=39
16f#
32r
32f#
8ff#[
16ff#]
32r
32f#
8ff#[
=40
16ff#]
32r
32f#
8ff#
16gg#
16dd
16cc#
16b
=41
16.cc#
32f#
8ff#[
16ff#]
32r
32f#
8ff#[
=42
16ff#]
32r
32f#
8ff#
16gg#
16dd
16cc#
16b
=43
16.cc#
32c#
8cc#
16.cc#[
32cc#]
8cc#
=44
16.cc#[
32cc#]
8cc#
16g#
16b
16a#
16g#
=45
16.b-
32c#
8cc#
16.cc#[
32cc#]
8cc#
=46
16.cc#[
32cc#]
8cc#
16g#
16b
16a#
16g#
=47
16.f#
32c#
8f#[
16f#]
32r
32c#
8f#
=48
16.f#
32c#
8f#[
16f#]
32r
32c#
8f#
=49
32a
16.g
4g
8g[
=50
16g]
16a
16g
16a
16b
16a
8g
=51
32g
16.ee
4g
8g[
=52
8g]
16a
16g
32g
16.ee
8g
=53
32g
16.f#
4f#
8f#[
=54
16f#]
16g
16f#
16g
16a
16g
8f#
=55
32f#
16.dd
4f#
8f#[
=56
8f#]
16g
16f#
32f#
16.dd
8f#
=57
32f#
16.e
4e
8e[
=58
16e]
16f#
16e
16a
16cc
16b
8a
=59
32f#
16.e
4e
8e[
=60
8e]
16f#
16e
16a
16g
16g
16f#
=61
8g
4dd
8dd[
=62
8dd]
8dd
16dd
16ee
16ff#
16ee
=63
8dd
4bb
8dd[
=64
8dd]
8dd
16gg
16ff#
16gg
16ee
=65
8dd
8gg
8bb
8ddd
=66
32eee
16ddd
32ccc
32ddd
16ccc
32bb
32ccc
16bb
32aa
32bb
16aa
32gg
=67
8gg
4gg
8gg
=68
16ff#[
16ff#]
16ff#
16ff#[
8ff#]
8ff#
=69
8ee
8g
8b
8ee
=70
32ee
16dd
32cc
32dd
16cc
32b
32cc
16b
32a
32b
16a
32g
=71
8g
4g
8g
=72
16f#[
16f#]
4f#
8f#
=73
16e
32r
32B
8e
16.e[
32e]
8e
=74
16.e[
32e]
8e[
16e]
16B
16e
16f#
=75
16.g
32B
8g[
16g]
32r
32B
8g
=76
16.g[
32g]
8g[
16g]
16e
16g
16a
=77
16.b
32e
8b[
16b]
32r
32e
8b[
=78
16b]
32r
32e
8b
16cc
16b
16a
16g
=79
16.b
32d#
8b[
16b]
32r
32d#
8b[
=80
16b]
32r
32d#
8b
16dd#
16cc
16b
16a
=81
16.g
32ee
8bb[
16bb]
32r
32ee
8bb[
=82
16bb]
32r
32ee
8bb
16aa
16gg
16ff#
16ee
=83
16.dd
32g
8dd
16.dd[
32dd]
8dd
=84
16.dd[
32dd]
8dd
16.dd[
32dd]
16.dd
32ee
=85
8dd
16.dd
32ee
8dd
16.dd
32ee
=86
8dd
8dd
16cc#
16dd
16cc#
16ff#
=87
16b
32r
32b
8bb
16.bb[
32bb]
8bb
=88
16.bb[
32bb]
8bb
16ccc#
16gg
16ff#
16ee
=89
16.ff#
32b
8bb
16.bb[
32bb]
8bb
=90
16.bb[
32bb]
8bb
16ccc#
16gg
16ff#
16ee
=91
16.ff#
32f#
8ff#
16.ff#[
32ff#]
8ff#
=92
16.ff#[
32ff#]
8ff#
16cc#
16ee
16dd#
16cc#
=93
16.dd#
32f#
8ff#
16.ff#[
32ff#]
8ff#
=94
16.ff#[
32ff#]
8ff#
16cc#
16ee
16dd#
16cc#
=95
16.b
32f#
8b
16.b[
32b]
8b
=96
16.b[
32b]
8b
16.b[
32b]
8b
=97
48dd
48cc[
12cc]
4cc
8cc
=98
48dd
16cc
24b
48cc
16b
24a
48b
16a
24g
48a
16g
24f#
=99
8g
4g
8g
=100
48a
16g
24f#
48g
16f#
24e
48f#
16e
24d
48e
16d
24c#
=101
8c#
4c#
8c#[
=102
8c#]
16c#
16d#
64c#
64d#
32e
32d#
32c#
32B
32d#
32c#
32B
=103
8B
4B
8B[
=104
8B]
4b
8b
=105
48dd
48cc[
12cc]
4cc
8cc
=106
48dd
16cc
24b
48cc
16b
24a
48b
16a
24g
48a
16g
24f#
=107
8g
4g
8g
=108
48a
16g
24f#
48g
16f#
24e
48f#
16e
24d
48e
16d
24c#
=109
8c#
4c#
8c#[
=110
8c#]
16c#
16d#
64c#
64d#
32e
32d#
32c#
32B
32d#
32c#
32B
=111
8B
4B
8B[
=112
8B]
4B
8f#
=113
8g#
8g#
4g#[
=114
8g#]
8g#
16g#
16g#
16g#
16g#
=115
8g#
8g#
4g#
=116
8g#
8g#
32g#
16.b
8g#]
=117
8g#
8g#
4g#[
=118
8g#]
8b
16b
16b-
16b-
16cc#
=119
8b
4b
8b[
=120
8b]
8b[
8b]
8b
=121
8f#
4f#
8f#[
=122
8f#]
8f#[
8f#]
8f#
=123
8d#
8d#
8r
8d#
=124
8r
8d#
8c#
8c#
=125
2r
=126
2r
=127
2r
==
*-
